X: 1536
T: Angel Meadow
R: reel
M: 4/4
K: Gminor
|:g6-g a/g/|f6-f g/a/|b2 bg f3d|g6-g b|
gf d4-dd|cB c4 cB|G8 -|G8:|
B6 cd|f4 d4|g3a g2 fd|cB d6|
B6 cd|f4 d2-dc|d8 -|d8|
B6 cd|f4 d4|g3a g2 fd|cB G6|
b6 c'd'|a6-a g|g8 -|g8||

